icon-themes/breeze_svg/cmd/lc_selectdb.svg

<svg viewBox="0 0 24 24" xmlns="http://www.w3.org/2000/svg"><path d="m4 4v1 15h1 5v-1-2-1-2-1-2-1-2h4 1 4 1v-3-1zm1 1h4v1 1h-1-3zm5 0h4v1 1h-4v-1zm5 0h4v2h-3-1v-1zm-10 3h3 1v1 1h-4v-1zm0 3h4v2h-4zm0 3h4v1 1h-1-3v-1zm0 3h3 1v1.099609.900391h-4z" fill="#4d4d4d"/><path d="m12 10v10l3.199219-4h4.800781z" fill="#1d99f3"/></svg>

<svg viewBox="0 0 24 24" xmlns="http://www.w3.org/2000/svg">
  <path
     style="fill:#4d4d4d"
     d="M 4 4 L 4 5 L 4 20 L 5 20 L 10 20 L 10 19 L 10 17 L 10 16 L 10 14 L 10 13 L 10 11 L 10 10 L 10 8 L 14 8 L 15 8 L 19 8 L 20 8 L 20 5 L 20 4 L 4 4 z M 5 5 L 9 5 L 9 6 L 9 7 L 8 7 L 5 7 L 5 5 z M 10 5 L 14 5 L 14 6 L 14 7 L 10 7 L 10 6 L 10 5 z M 15 5 L 19 5 L 19 7 L 16 7 L 15 7 L 15 6 L 15 5 z M 5 8 L 8 8 L 9 8 L 9 9 L 9 10 L 5 10 L 5 9 L 5 8 z M 5 11 L 9 11 L 9 13 L 5 13 L 5 11 z M 18 12 L 17 13 L 12 18 L 12 20 L 14 20 L 14 19.96875 L 15 19 L 19 15 L 20 14 L 18 12 z M 17.71875 13.6875 L 18.28125 14.28125 L 13.3125 19.28125 L 12.71875 18.6875 L 17.71875 13.6875 z M 5 14 L 9 14 L 9 15 L 9 16 L 8 16 L 5 16 L 5 15 L 5 14 z M 5 17 L 8 17 L 9 17 L 9 18.099609 L 9 19 L 5 19 L 5 17 z "
     />
</svg>
